!!!COM: Bach, Johann Sebastian
!!!CDT: 1685/3//-1750/7/28/
!!!OTL@@DE: Komm, Gott Schoepfer, heiliger Geist
!!!AGN: 4-Part Chorale
!!!SCT: BH 187
!!!SCT: BWV 370
**harm	**root	**kern	**kern	**kern	**kern
!	!	!bass	!tenor	!alto	!soprno
*	*Iorgan	*Iorgan	*Iorgan	*Iorgan	*Iorgan
*M4/4	*M4/4	*M4/4	*M4/4	*M4/4	*M4/4
*met(c)	*met(c)	*met(c)	*met(c)	*met(c)	*met(c)
*MM60	*MM60	*MM60	*MM60	*MM60	*MM60
*k[f#c#g#d#]	*k[f#c#g#d#]	*k[f#c#g#d#]	*k[f#c#g#d#]	*k[f#c#g#d#]	*k[f#c#g#d#]
*B:	*B:	*B:	*B:	*B:	*B:
I	4GG	4B	4d#	8f#	4b
.	.	.	.	8g#	.
=1	=1	=1	=1	=1	=1
-VII	4FF	4A	4e	[4a	4cc#
IV	4CC	4E	4e	8a]	4b
.	.	.	.	[8g#	.
v	4DD	4F#	4c#	8g#]	4a
.	.	.	.	16f#	.
.	.	.	.	16e	.
vi	4EE	4G#	8B	8d#	4b
.	.	.	16e	[8g#	.
.	.	.	16d#	.	.
=2	=2	=2	=2	=2	=2
ii	8AA	4C#	8e	8g#]	4ee
-VIIb	8FF	.	8a	8e	.
I	4GG	4BB	4d#	8b	4ff#
.	.	.	.	8a	.
IV;	4CC;	4E;	4B;	4g#;	4ee;
-VII	4FF	4A	4c#	8e	4ee
.	.	.	.	8f#	.
=3	=3	=3	=3	=3	=3
vi	4EE	4G#	8d#	4g#	4b
.	.	.	8e	.	.
iiiob	4BB	4F#	4f#	4a	4dd#
IV	4CC	4.E	4g#	4b	4ee
I	4GG	.	[4f#	4b	4ff#
.	.	8D#	.	.	.
=4	=4	=4	=4	=4	=4
IV	4CC	4E	8f#]	[4b	4gg#
.	.	.	16e	.	.
.	.	.	16d#	.	.
IV	8CC	4EE	8e	8b]	4gg#
vii7c	8FF#	.	8c#	8a#	.
I;	4GG;	4BB;	4d#;	4b;	4ff#;
I	4GG	4B	4d#	4b	4ff#
!!linebreak: 2
=5	=5	=5	=5	=5	=5
IV	4CC	4E	8e	4b	8gg#
.	.	.	8d#	.	8ff#
IVb	4CC	4G#	4e	[4b	4ee
-VII	4FF	4A	4e	8b]	4cc#
.	.	.	.	[8a	.
IV	4CC	4e	4e	8a]	4b
.	.	.	.	8g#	.
=6	=6	=6	=6	=6	=6
I	4GG	8B	4f#	4b	4dd#
.	.	8A	.	.	.
vii/v	4CC#	4G#	4g#	4b	4ee#
v;	4DD;	4F#;	4a;	4cc#;	4ff#;
vi	4EE	4G#	4d#	4g#	4b
=7	=7	=7	=7	=7	=7
ii	4AA	8C#	4c#	8g#	4ee
.	.	8D#	.	8f#	.
iib	4AA	4E	4c#	[4g#	4cc#
v	8DD	4F#	8c#	8g#]	4a
-IIIb	8BB-	.	8d	16f#	.
.	.	.	.	16g#	.
-VIIb	4FF	4C#	4e	[4a	4cc#
=8	=8	=8	=8	=8	=8
I7b	4GG	4D#	[4f#	4a]	2b
IV	4CC	4E	8f#]	4g#	.
.	.	.	[8e	.	.
I;	4GG;	4BB;	8e]	4f#;	4b;
.	.	.	8d#;	.	.
==	==	==	==	==	==
*-	*-	*-	*-	*-	*-
!!chor2scor: -l 2 -s 0.6 -o %b.pmx
!!!YEC: Copyright 1994, David Huron
!!!YEC: Changes/Additions 2001 by Craig Stuart Sapp
!!!YEN: United States of America
!!!SMA: 371 Bach Chorales, edited by Ludwig Erk, C.F. Peters
!!!PDT: 1850, 1865
!!!ONB: Harmony and Root analysis done manually
!!!ONB: Actual key is G Mixolydian 
